!!!COM: Olivier (Eugène Prosper Charles) Messiaen
!!!OTL: [T764_Mes-w22p111m1-10]
**kern	**dynam	**kern	**dynam	**kern	**dynam	**kern	**dynam	**kern	**dynam
*grp:A	*	*grp:A	*	*grp:A	*	*grp:B	*	*grp:B	*
*part5	*part5	*part4	*part4	*part3	*part3	*part2	*part2	*part1	*part1
*staff5	*	*staff4	*	*staff3	*	*staff2	*	*staff1	*
*I"Vibraphone	*	*I"Susp. Cymbal	*	*I"Wood Block	*	*I"Bassoon 1.	*	*I"Piccolo	*
*I'Vib.	*	*I'S.Cymb.	*	*I'W.B.	*	*I'1.Bsn.	*	*I'Picc.	*
*ICidio	*	*ICidio	*	*ICidio	*	*ICww	*	*ICww	*
*Ivibra	*	*Icymba	*	*Iwbloc	*	*Ifagot	*	*Ipicco	*
*clefG2	*	*clefX	*	*clefX	*	*clefF4	*	*clefG2	*
*	*	*	*	*	*	*	*	*ITrd-7c-12	*
*k[]	*	*k[]	*	*k[]	*	*k[]	*	*k[]	*
*C:	*	*C:	*	*C:	*	*C:	*	*C:	*
*M3/4	*	*M3/4	*	*M3/4	*	*M3/4	*	*M3/4	*
=1	=1	=1	=1	=1	=1	=1	=1	=1	=1
!	!	!	!	!	!	!	!	!LO:TX:t=[[quarter]=66]	!
!LO:TX:a:t=(sonne à l' 8ve signé) tenu et vibré	!	!	!	!	!	!LO:TX:a:t=Solo	!	!LO:TX:a:t=Solo	!
2.ryy	4ryy	2.ryy	4ryy	4%3ryy	.	16D#X'LL	4ryy	16dddd#X'LL	4ryy
.	.	.	.	.	.	16DDn'	.	16ddd'	.
.	.	.	.	.	.	16EE'JJ	.	16eee'JJ	.
.	.	.	.	.	.	16r	.	16r	.
.	.	.	.	.	.	16DDn'LL	.	16ddd'LL	.
.	.	.	.	.	.	16D#X'	.	16dddd#X'	.
.	.	.	.	.	.	16EE'JJ	.	16eee'JJ	.
.	.	.	.	.	.	16r	.	16r	.
.	.	.	.	.	.	16Dn'LL	.	16dddd'LL	.
.	.	.	.	.	.	16DD#X'	.	16ddd#X'	.
.	.	.	.	.	.	16EE'JJ	.	16eee'JJ	.
.	.	.	.	.	.	16r	.	16r	.
=2	=2	=2	=2	=2	=2	=2	=2	=2	=2
4ryy	.	4ryy	.	4%3ryy	.	16GGn'LL	.	16ggg'LL	.
.	.	.	.	.	.	16GG#X'	.	16ggg#X'	.
.	.	.	.	.	.	16AA#X'	.	16aaa#X'	.
.	.	.	.	.	.	16C#X'JJ	.	16cccc#X'JJ	.
16ryy	.	16ryy	.	.	.	16CCn'KL	.	16ccc'KL	.
8.ryy	.	8.ryy	.	.	.	8BB'	.	8bbb'	.
.	.	.	.	.	.	(16BB-XJk	.	(16bbb-XJk	.
4ryy	.	4ryy	.	.	.	16E-XLL	.	16eeee-XLL	.
.	.	.	.	.	.	16DDn	.	16ddd	.
.	.	.	.	.	.	16C#X	.	16cccc#X	.
.	.	.	.	.	.	[16EEnJJ	.	[16eeeJJ	.
=3	=3	=3	=3	=3	=3	=3	=3	=3	=3
2ryy	.	2ryy	.	4%3ryy	.	16EELL])	.	16eeeLL])	.
.	.	.	.	.	.	16D#X'	.	16dddd#X'	.
.	.	.	.	.	.	16DDn'	.	16ddd'	.
.	.	.	.	.	.	16EE'JJ	.	16eee'JJ	.
.	.	.	.	.	.	16r	.	16r	.
.	.	.	.	.	.	16DDn'LL	.	16ddd'LL	.
.	.	.	.	.	.	16D#X'	.	16dddd#X'	.
.	.	.	.	.	.	16EE'JJ	.	16eee'JJ	.
16ryy	.	16ryy	.	.	.	16r	.	16r	.
8.ryy	.	8.ryy	.	.	.	16Dn'LL	.	16dddd'LL	.
.	.	.	.	.	.	16DD#X'	.	16ddd#X'	.
.	.	.	.	.	.	16EE'JJ	.	16eee'JJ	.
=4	=4	=4	=4	=4	=4	=4	=4	=4	=4
2.ryy	.	2.ryy	.	4%3ryy	.	16r	.	16r	.
.	.	.	.	.	.	16GGn'LL	.	16ggg'LL	.
.	.	.	.	.	.	16GG#X'	.	16ggg#X'	.
.	.	.	.	.	.	16AA#X'JJ	.	16aaa#X'JJ	.
.	.	.	.	.	.	16C#X'LL	.	16cccc#X'LL	.
.	.	.	.	.	.	16CCn'J	.	16ccc'J	.
.	.	.	.	.	.	8BB'J	.	8bbb'J	.
.	.	.	.	.	.	(16BB-XLL	.	(16bbb-XLL	.
.	.	.	.	.	.	16E-X	.	16eeee-X	.
.	.	.	.	.	.	16DDn	.	16ddd	.
.	.	.	.	.	.	16C#XJJ	.	16cccc#XJJ	.
=5	=5	=5	=5	=5	=5	=5	=5	=5	=5
2.ryy	.	2.ryy	.	4ryy	.	8EEnL	.	8eeeL)	.
.	.	.	.	.	.	(16BB-XL	.	(16bbb-XL	.
.	.	.	.	.	.	16E-XJJ	.	16eeee-XJJ	.
.	.	.	.	4ryy	4ryy	16DDLL	.	16dddLL	.
.	.	.	.	.	.	16C#X	.	16cccc#X	.
.	.	.	.	.	.	16EEn	.	16eee	.
.	.	.	.	.	.	16BB-XJJ	.	16bbb-XJJ	.
.	.	.	.	4ryy	.	8EEnL)	.	8eeeL)	.
.	.	.	.	.	.	(16BB-XL	.	(16bbb-XL	.
.	.	.	.	.	.	16E-XJJ	.	16eeee-XJJ	.
=6	=6	=6	=6	=6	=6	=6	=6	=6	=6
8ryy	.	8ryy	.	4ryy	.	16DDLL	.	16dddLL	.
.	.	.	.	.	.	16C#XJ	.	16cccc#XJ	.
8ryy	.	8ryy	.	.	.	8EEnJ)	.	8eeeJ)	.
2ryy	.	2ryy	.	8ryy	.	16G#X'LL	.	16gggg#X'LL	.
.	.	.	.	.	.	16Dn'	.	16dddd'	.
.	.	.	.	8ryy	.	16D#X'	.	16dddd#X'	.
.	.	.	.	.	.	16G#X'JJ	.	16gggg#X'JJ	.
.	.	.	.	16ryy	.	16Dn'LL	.	16dddd'LL	.
.	.	.	.	8ryy	.	16GGn'	.	16ggg'	.
.	.	.	.	.	.	16C#X'	.	16cccc#X'	.
.	.	.	.	16ryy	.	16F#X'JJ	.	16ffff#X'JJ	.
=7	=7	=7	=7	=7	=7	=7	=7	=7	=7
8.ryy	.	8.ryy	.	16ryy	.	16BB'LL	.	16bbb'LL	.
.	.	.	.	8ryy	.	16FFn'J	.	16fff'J	.
.	.	.	.	.	.	8EE'J	.	8eee'J	.
16ryy	.	16ryy	.	16ryy	.	.	.	.	.
!	!	!	!	!	!	!LO:TX:b:i:t=stacc.	!	!LO:TX:b:i:t=stacc.	!
2ryy	.	2ryy	.	16ryy	.	16D#XLL	.	16dddd#XLL	.
.	.	.	.	8.ryy	.	16DDn	.	16ddd	.
.	.	.	.	.	.	16EE	.	16eee	.
.	.	.	.	.	.	16DDnJJ	.	16dddJJ	.
.	.	.	.	8.ryy	.	16D#XLL	.	16dddd#XLL	.
.	.	.	.	.	.	16EE	.	16eee	.
.	.	.	.	.	.	16Dn	.	16dddd	.
.	.	.	.	16ryy	.	16DD#XJJ	.	16ddd#XJJ	.
=8	=8	=8	=8	=8	=8	=8	=8	=8	=8
8.ryy	.	8.ryy	.	8ryy	.	16EELL	.	16eeeLL	.
.	.	.	.	.	.	16GGn	4ryy	16ggg	4ryy
.	.	.	.	16ryy	.	16GG#X	.	16ggg#X	.
16ryy	.	16ryy	.	16ryy	.	16AA#XJJ	.	16aaa#XJJ	.
2ryy	.	2ryy	.	16ryy	.	16C#XLL	.	16cccc#XLL	.
.	.	.	.	8.ryy	.	16CCn	.	16ccc	.
.	.	.	.	.	.	16BBn	.	16bbb	.
.	.	.	.	.	.	16FFnJJ	.	16fffJJ	.
.	.	.	.	4ryy	.	16EELL	.	16eeeLL	.
.	.	.	.	.	.	16Gn	.	16gggg	.
.	.	.	.	.	.	16D	.	16dddd	.
.	.	.	.	.	.	16GG#XJJ	.	16ggg#XJJ	.
=9	=9	=9	=9	=9	=9	=9	=9	=9	=9
8ryy	.	8ryy	.	2ryy	.	16FnMLL	4ryy	16ffffMLLT	4ryy
.	.	.	.	.	.	16E	.	16eeee	.
8ryy	.	8ryy	.	.	.	16E	.	16eeee	.
.	.	.	.	.	.	16EJJ	.	16eeeeJJ	.
2ryy	.	2ryy	.	.	.	16ELL	.	16eeeeLL	.
.	.	.	.	.	.	16B-X^	4ryy	16bbbb-X^	4ryy
.	.	.	.	.	.	16E-X	.	16eeee-X	.
.	.	.	.	.	.	16C#XJJ	.	16cccc#XJJ	.
.	.	.	.	4ryy	.	16BBnLL	.	16bbbLL	.
.	.	.	.	.	.	16AA#X	.	16aaa#X	.
.	.	.	.	.	.	16GG#X	4ryy	16ggg#X	4ryy
.	.	.	.	.	.	16GGnJJ	.	16gggJJ	.
=10	=10	=10	=10	=10	=10	=10	=10	=10	=10
2ryy	.	2ryy	.	4ryy	.	16C#XLL	.	16cccc#XLL	.
.	.	.	.	.	.	16CCn	.	16ccc	.
.	.	.	.	.	.	16D#X	.	16dddd#X	.
.	.	.	.	.	.	16DDnJJ	.	16dddJJ	.
.	.	.	.	4ryy	.	8EEnL	.	8eeeL	.
.	.	.	.	.	.	(16BB-XL	4ryy	(16bbb-XL	4ryy
.	.	.	.	.	.	16E-XJJ	.	16eeee-XJJ	.
16ryy	.	16ryy	.	8ryy	.	16DDLL	.	16dddLL	.
8.ryy	.	8.ryy	.	.	.	16C#X	.	16cccc#X	.
.	.	.	.	8ryy	.	16EEn	.	16eee	.
.	.	.	.	.	.	16BB-XJJ)	.	16bbb-XJJ)	.
=||	=||	=||	=||	=||	=||	=||	=||	=||	=||
*-	*-	*-	*-	*-	*-	*-	*-	*-	*-
!!!system-decoration: [(s1,s2)][(s3,s4)][(s5)]
!!!RDF**dynam: > = dim.
